X: 128004
M: 2/4
L: 1/16
K: D
(de) |\
f2f2 fede | f2f2f2 (de) |\
f2f2 fefg | f2e2e2 (cd) |\
e2e2e2 (cd) | e2e2e2 (cd) |\
eegg ffee | e2d2d2 H|]
|: z2 |\
c3c c2d2 |[1 e6 c2 |\
d3c d2f2 | a6 :|\
[2 e2e2g2g2 | f3g f2e2 | "_D.C."d6 |]


